%
(Header)
(Generated by gcodetools from Inkscape.)
(Using default header. To add your own header create file "header" in the output dir.)
M3
(Header end.)
G21 (All units in mm)

(Start cutting path id: path22993)
(Change tool to Default tool)

G00 Z5.000000
G00 X75.477200 Y68.103000

G01 Z-0.125000 F100.0(Penetrate)
G01 X73.830200 Y68.019000 Z-0.125000 F400.000000
G01 X72.230400 Y67.775000 Z-0.125000
G01 X70.686000 Y67.377000 Z-0.125000
G01 X69.205000 Y66.834000 Z-0.125000
G01 X67.795800 Y66.155000 Z-0.125000
G01 X66.466300 Y65.347000 Z-0.125000
G01 X64.079300 Y63.377000 Z-0.125000
G01 X62.109300 Y60.990000 Z-0.125000
G01 X61.301100 Y59.661000 Z-0.125000
G01 X60.621500 Y58.251000 Z-0.125000
G01 X60.078800 Y56.770000 Z-0.125000
G01 X59.681000 Y55.226000 Z-0.125000
G01 X59.436400 Y53.626000 Z-0.125000
G01 X59.353000 Y51.978000 Z-0.125000
G01 X59.436400 Y50.331000 Z-0.125000
G01 X59.681000 Y48.731000 Z-0.125000
G01 X60.078800 Y47.187000 Z-0.125000
G01 X60.621500 Y45.706000 Z-0.125000
G01 X61.301100 Y44.296000 Z-0.125000
G01 X62.109300 Y42.967000 Z-0.125000
G01 X64.079300 Y40.580000 Z-0.125000
G01 X66.466300 Y38.610000 Z-0.125000
G01 X67.795800 Y37.802000 Z-0.125000
G01 X69.205000 Y37.122000 Z-0.125000
G01 X70.686000 Y36.580000 Z-0.125000
G01 X72.230400 Y36.182000 Z-0.125000
G01 X73.830200 Y35.938000 Z-0.125000
G01 X75.477200 Y35.854000 Z-0.125000
G01 X77.674000 Y36.003000 Z-0.125000
G01 X79.781200 Y36.435000 Z-0.125000
G01 X81.779300 Y37.133000 Z-0.125000
G01 X83.648500 Y38.075000 Z-0.125000
G01 X85.369000 Y39.244000 Z-0.125000
G01 X86.921100 Y40.618000 Z-0.125000
G01 X88.285200 Y42.180000 Z-0.125000
G01 X89.441400 Y43.910000 Z-0.125000
G01 X89.805500 Y44.538000 Z-0.125000
G01 X83.214500 Y48.343000 Z-0.125000
G01 X82.851300 Y47.716000 Z-0.125000
G01 X81.521900 Y45.979000 Z-0.125000
G01 X79.795400 Y44.637000 Z-0.125000
G01 X77.753400 Y43.770000 Z-0.125000
G01 X76.639500 Y43.541000 Z-0.125000
G01 X75.477200 Y43.463000 Z-0.125000
G01 X73.759000 Y43.636000 Z-0.125000
G01 X72.159800 Y44.131000 Z-0.125000
G01 X70.713500 Y44.915000 Z-0.125000
G01 X69.454000 Y45.954000 Z-0.125000
G01 X68.415300 Y47.214000 Z-0.125000
G01 X67.631300 Y48.661000 Z-0.125000
G01 X67.136100 Y50.260000 Z-0.125000
G01 X66.963400 Y51.978000 Z-0.125000
G01 X67.136100 Y53.697000 Z-0.125000
G01 X67.631300 Y55.296000 Z-0.125000
G01 X68.415200 Y56.743000 Z-0.125000
G01 X69.453900 Y58.002000 Z-0.125000
G01 X70.713400 Y59.041000 Z-0.125000
G01 X72.159700 Y59.824000 Z-0.125000
G01 X73.759000 Y60.320000 Z-0.125000
G01 X75.477200 Y60.492000 Z-0.125000
G01 X76.730400 Y60.398000 Z-0.125000
G01 X77.922600 Y60.125000 Z-0.125000
G01 X79.044100 Y59.691000 Z-0.125000
G01 X80.085200 Y59.112000 Z-0.125000
G01 X69.111700 Y52.775000 Z-0.125000
G01 X72.917300 Y46.187000 Z-0.125000
G01 X90.946800 Y56.586000 Z-0.125000
G01 X90.756400 Y57.150000 Z-0.125000
G01 X89.771500 Y59.450000 Z-0.125000
G01 X88.456200 Y61.549000 Z-0.125000
G01 X86.843700 Y63.415000 Z-0.125000
G01 X84.966900 Y65.015000 Z-0.125000
G01 X82.858800 Y66.317000 Z-0.125000
G01 X80.552500 Y67.287000 Z-0.125000
G01 X78.081000 Y67.893000 Z-0.125000
G01 X75.477200 Y68.103000 Z-0.125000
G01 X75.477200 Y68.103000 Z-0.125000
G00 Z5.000000

(End cutting path id: path22993)


(Start cutting path id: path22993)
(Change tool to Default tool)

G00 Z5.000000
G00 X75.477200 Y66.652000

G01 Z-0.125000 F100.0(Penetrate)
G01 X77.774500 Y66.473000 Z-0.125000 F400.000000
G01 X79.956000 Y65.953000 Z-0.125000
G01 X81.995600 Y65.120000 Z-0.125000
G01 X83.867200 Y64.002000 Z-0.125000
G01 X85.544700 Y62.626000 Z-0.125000
G01 X87.001900 Y61.019000 Z-0.125000
G01 X88.212600 Y59.210000 Z-0.125000
G01 X89.150900 Y57.225000 Z-0.125000
G01 X73.448300 Y48.167000 Z-0.125000
G01 X71.093000 Y52.244000 Z-0.125000
G01 X82.684300 Y58.938000 Z-0.125000
G01 X81.893600 Y59.605000 Z-0.125000
G01 X80.503100 Y60.586000 Z-0.125000
G01 X78.950500 Y61.321000 Z-0.125000
G01 X77.265400 Y61.782000 Z-0.125000
G01 X75.477200 Y61.942000 Z-0.125000
G01 X73.471700 Y61.740000 Z-0.125000
G01 X71.602500 Y61.158000 Z-0.125000
G01 X69.910100 Y60.239000 Z-0.125000
G01 X68.434900 Y59.021000 Z-0.125000
G01 X67.217200 Y57.546000 Z-0.125000
G01 X66.297400 Y55.854000 Z-0.125000
G01 X65.716000 Y53.984000 Z-0.125000
G01 X65.513200 Y51.978000 Z-0.125000
G01 X65.715900 Y49.973000 Z-0.125000
G01 X66.297400 Y48.103000 Z-0.125000
G01 X67.217200 Y46.411000 Z-0.125000
G01 X68.434800 Y44.935000 Z-0.125000
G01 X69.910100 Y43.717000 Z-0.125000
G01 X71.602400 Y42.797000 Z-0.125000
G01 X73.471600 Y42.216000 Z-0.125000
G01 X75.477200 Y42.013000 Z-0.125000
G01 X76.736500 Y42.094000 Z-0.125000
G01 X77.945500 Y42.330000 Z-0.125000
G01 X79.095700 Y42.711000 Z-0.125000
G01 X80.178300 Y43.225000 Z-0.125000
G01 X82.106800 Y44.613000 Z-0.125000
G01 X83.662000 Y46.409000 Z-0.125000
G01 X87.782400 Y44.032000 Z-0.125000
G01 X86.715600 Y42.583000 Z-0.125000
G01 X85.484800 Y41.277000 Z-0.125000
G01 X84.104700 Y40.128000 Z-0.125000
G01 X82.590000 Y39.153000 Z-0.125000
G01 X80.955300 Y38.368000 Z-0.125000
G01 X79.215100 Y37.788000 Z-0.125000
G01 X77.384200 Y37.428000 Z-0.125000
G01 X75.477200 Y37.304000 Z-0.125000
G01 X73.975700 Y37.380000 Z-0.125000
G01 X72.517800 Y37.602000 Z-0.125000
G01 X69.762300 Y38.456000 Z-0.125000
G01 X67.269600 Y39.808000 Z-0.125000
G01 X65.098400 Y41.599000 Z-0.125000
G01 X63.307400 Y43.770000 Z-0.125000
G01 X61.955400 Y46.263000 Z-0.125000
G01 X61.101100 Y49.019000 Z-0.125000
G01 X60.879000 Y50.477000 Z-0.125000
G01 X60.803300 Y51.978000 Z-0.125000
G01 X60.879000 Y53.480000 Z-0.125000
G01 X61.101100 Y54.938000 Z-0.125000
G01 X61.955400 Y57.694000 Z-0.125000
G01 X63.307400 Y60.187000 Z-0.125000
G01 X65.098400 Y62.358000 Z-0.125000
G01 X67.269600 Y64.149000 Z-0.125000
G01 X69.762300 Y65.500000 Z-0.125000
G01 X72.517800 Y66.355000 Z-0.125000
G01 X73.975700 Y66.577000 Z-0.125000
G01 X75.477200 Y66.652000 Z-0.125000
G01 X75.477200 Y66.652000 Z-0.125000
G00 Z5.000000

(End cutting path id: path22993)


(Start cutting path id: path23011)
(Change tool to Default tool)

G00 Z5.000000
G00 X90.908400 Y67.152000

G01 Z-0.125000 F100.0(Penetrate)
G01 X90.908400 Y66.401000 Z-0.125000 F400.000000
G01 X90.908400 Y59.540000 Z-0.125000
G01 X101.228000 Y59.540000 Z-0.125000
G01 X88.396900 Y36.890000 Z-0.125000
G01 X113.654000 Y36.890000 Z-0.125000
G01 X113.654000 Y44.502000 Z-0.125000
G01 X102.111000 Y44.502000 Z-0.125000
G01 X114.944000 Y67.152000 Z-0.125000
G01 X90.908400 Y67.152000 Z-0.125000
G00 Z5.000000

(End cutting path id: path23011)


(Start cutting path id: path23011)
(Change tool to Default tool)

G00 Z5.000000
G00 X92.412100 Y65.649000

G01 Z-0.125000 F100.0(Penetrate)
G01 X112.364000 Y65.649000 Z-0.125000 F400.000000
G01 X99.530700 Y42.999000 Z-0.125000
G01 X112.150000 Y42.999000 Z-0.125000
G01 X112.150000 Y38.393000 Z-0.125000
G01 X90.976000 Y38.393000 Z-0.125000
G01 X103.809000 Y61.044000 Z-0.125000
G01 X92.412100 Y61.044000 Z-0.125000
G01 X92.412100 Y65.649000 Z-0.125000
G00 Z5.000000

(End cutting path id: path23011)


(Start cutting path id: path22999)
(Change tool to Default tool)

G00 Z5.000000
G00 X129.223000 Y66.626000

G01 Z-0.125000 F100.0(Penetrate)
G01 X130.723000 Y66.550000 Z-0.125000 F400.000000
G01 X132.180000 Y66.328000 Z-0.125000
G01 X134.932000 Y65.475000 Z-0.125000
G01 X137.422000 Y64.125000 Z-0.125000
G01 X139.590000 Y62.337000 Z-0.125000
G01 X141.379000 Y60.168000 Z-0.125000
G01 X142.729000 Y57.679000 Z-0.125000
G01 X143.582000 Y54.926000 Z-0.125000
G01 X143.803000 Y53.470000 Z-0.125000
G01 X143.879000 Y51.970000 Z-0.125000
G01 X143.803000 Y50.470000 Z-0.125000
G01 X143.582000 Y49.014000 Z-0.125000
G01 X142.729000 Y46.262000 Z-0.125000
G01 X141.379000 Y43.773000 Z-0.125000
G01 X139.590000 Y41.605000 Z-0.125000
G01 X137.422000 Y39.816000 Z-0.125000
G01 X134.932000 Y38.466000 Z-0.125000
G01 X132.180000 Y37.614000 Z-0.125000
G01 X130.723000 Y37.392000 Z-0.125000
G01 X129.223000 Y37.316000 Z-0.125000
G01 X127.724000 Y37.392000 Z-0.125000
G01 X126.268000 Y37.614000 Z-0.125000
G01 X123.516000 Y38.467000 Z-0.125000
G01 X121.026000 Y39.817000 Z-0.125000
G01 X118.858000 Y41.605000 Z-0.125000
G01 X117.069000 Y43.773000 Z-0.125000
G01 X115.719000 Y46.262000 Z-0.125000
G01 X114.866000 Y49.014000 Z-0.125000
G01 X114.644000 Y50.470000 Z-0.125000
G01 X114.569000 Y51.970000 Z-0.125000
G01 X114.644000 Y53.470000 Z-0.125000
G01 X114.866000 Y54.926000 Z-0.125000
G01 X115.719000 Y57.679000 Z-0.125000
G01 X117.069000 Y60.168000 Z-0.125000
G01 X118.858000 Y62.337000 Z-0.125000
G01 X121.026000 Y64.125000 Z-0.125000
G01 X123.516000 Y65.475000 Z-0.125000
G01 X126.268000 Y66.328000 Z-0.125000
G01 X127.724000 Y66.550000 Z-0.125000
G01 X129.223000 Y66.626000 Z-0.125000
G01 X129.223000 Y66.626000 Z-0.125000
G00 Z5.000000

(End cutting path id: path22999)


(Start cutting path id: path22999)
(Change tool to Default tool)

G00 Z5.000000
G00 X129.223000 Y68.129000

G01 Z-0.125000 F100.0(Penetrate)
G01 X127.573000 Y68.046000 Z-0.125000 F400.000000
G01 X125.970000 Y67.801000 Z-0.125000
G01 X124.422000 Y67.402000 Z-0.125000
G01 X122.938000 Y66.858000 Z-0.125000
G01 X121.525000 Y66.177000 Z-0.125000
G01 X120.193000 Y65.367000 Z-0.125000
G01 X117.801000 Y63.393000 Z-0.125000
G01 X115.827000 Y61.001000 Z-0.125000
G01 X115.016000 Y59.669000 Z-0.125000
G01 X114.335000 Y58.256000 Z-0.125000
G01 X113.791000 Y56.772000 Z-0.125000
G01 X113.393000 Y55.224000 Z-0.125000
G01 X113.148000 Y53.621000 Z-0.125000
G01 X113.064000 Y51.970000 Z-0.125000
G01 X113.148000 Y50.319000 Z-0.125000
G01 X113.393000 Y48.716000 Z-0.125000
G01 X113.791000 Y47.169000 Z-0.125000
G01 X114.335000 Y45.684000 Z-0.125000
G01 X115.016000 Y44.272000 Z-0.125000
G01 X115.827000 Y42.940000 Z-0.125000
G01 X117.801000 Y40.548000 Z-0.125000
G01 X120.193000 Y38.574000 Z-0.125000
G01 X121.525000 Y37.764000 Z-0.125000
G01 X122.938000 Y37.083000 Z-0.125000
G01 X124.422000 Y36.540000 Z-0.125000
G01 X125.970000 Y36.141000 Z-0.125000
G01 X127.573000 Y35.896000 Z-0.125000
G01 X129.223000 Y35.812000 Z-0.125000
G01 X130.874000 Y35.896000 Z-0.125000
G01 X132.478000 Y36.141000 Z-0.125000
G01 X134.026000 Y36.540000 Z-0.125000
G01 X135.510000 Y37.083000 Z-0.125000
G01 X136.922000 Y37.764000 Z-0.125000
G01 X138.255000 Y38.574000 Z-0.125000
G01 X140.647000 Y40.548000 Z-0.125000
G01 X142.621000 Y42.940000 Z-0.125000
G01 X143.431000 Y44.272000 Z-0.125000
G01 X144.112000 Y45.685000 Z-0.125000
G01 X144.655000 Y47.169000 Z-0.125000
G01 X145.054000 Y48.716000 Z-0.125000
G01 X145.299000 Y50.319000 Z-0.125000
G01 X145.383000 Y51.970000 Z-0.125000
G01 X145.299000 Y53.621000 Z-0.125000
G01 X145.054000 Y55.224000 Z-0.125000
G01 X144.655000 Y56.772000 Z-0.125000
G01 X144.112000 Y58.256000 Z-0.125000
G01 X143.431000 Y59.669000 Z-0.125000
G01 X142.621000 Y61.001000 Z-0.125000
G01 X140.647000 Y63.393000 Z-0.125000
G01 X138.255000 Y65.367000 Z-0.125000
G01 X136.922000 Y66.177000 Z-0.125000
G01 X135.510000 Y66.858000 Z-0.125000
G01 X134.026000 Y67.402000 Z-0.125000
G01 X132.478000 Y67.801000 Z-0.125000
G01 X130.874000 Y68.046000 Z-0.125000
G01 X129.223000 Y68.129000 Z-0.125000
G01 X129.223000 Y68.129000 Z-0.125000
G00 Z5.000000

(End cutting path id: path22999)


(Start cutting path id: path22999)
(Change tool to Default tool)

G00 Z5.000000
G00 X129.220000 Y62.079000

G01 Z-0.125000 F100.0(Penetrate)
G01 X127.188000 Y61.873000 Z-0.125000 F400.000000
G01 X125.294000 Y61.284000 Z-0.125000
G01 X123.580000 Y60.352000 Z-0.125000
G01 X122.085000 Y59.118000 Z-0.125000
G01 X120.851000 Y57.623000 Z-0.125000
G01 X119.919000 Y55.909000 Z-0.125000
G01 X119.330000 Y54.015000 Z-0.125000
G01 X119.124000 Y51.983000 Z-0.125000
G01 X119.330000 Y49.951000 Z-0.125000
G01 X119.919000 Y48.057000 Z-0.125000
G01 X120.851000 Y46.342000 Z-0.125000
G01 X122.085000 Y44.847000 Z-0.125000
G01 X123.580000 Y43.614000 Z-0.125000
G01 X125.294000 Y42.682000 Z-0.125000
G01 X127.188000 Y42.093000 Z-0.125000
G01 X129.220000 Y41.887000 Z-0.125000
G01 X131.252000 Y42.093000 Z-0.125000
G01 X133.146000 Y42.682000 Z-0.125000
G01 X134.860000 Y43.614000 Z-0.125000
G01 X136.355000 Y44.847000 Z-0.125000
G01 X137.589000 Y46.342000 Z-0.125000
G01 X138.521000 Y48.057000 Z-0.125000
G01 X139.110000 Y49.951000 Z-0.125000
G01 X139.315000 Y51.983000 Z-0.125000
G01 X139.110000 Y54.015000 Z-0.125000
G01 X138.521000 Y55.909000 Z-0.125000
G01 X137.589000 Y57.623000 Z-0.125000
G01 X136.355000 Y59.118000 Z-0.125000
G01 X134.860000 Y60.352000 Z-0.125000
G01 X133.146000 Y61.284000 Z-0.125000
G01 X131.252000 Y61.873000 Z-0.125000
G01 X129.220000 Y62.079000 Z-0.125000
G01 X129.220000 Y62.079000 Z-0.125000
G00 Z5.000000

(End cutting path id: path22999)


(Start cutting path id: path22999)
(Change tool to Default tool)

G00 Z5.000000
G00 X129.220000 Y60.575000

G01 Z-0.125000 F100.0(Penetrate)
G01 X130.954000 Y60.401000 Z-0.125000 F400.000000
G01 X132.568000 Y59.901000 Z-0.125000
G01 X134.027000 Y59.110000 Z-0.125000
G01 X135.298000 Y58.061000 Z-0.125000
G01 X136.346000 Y56.790000 Z-0.125000
G01 X137.138000 Y55.331000 Z-0.125000
G01 X137.638000 Y53.717000 Z-0.125000
G01 X137.812000 Y51.983000 Z-0.125000
G01 X137.638000 Y50.249000 Z-0.125000
G01 X137.138000 Y48.635000 Z-0.125000
G01 X136.346000 Y47.175000 Z-0.125000
G01 X135.298000 Y45.904000 Z-0.125000
G01 X134.027000 Y44.856000 Z-0.125000
G01 X132.568000 Y44.065000 Z-0.125000
G01 X130.954000 Y43.565000 Z-0.125000
G01 X129.220000 Y43.391000 Z-0.125000
G01 X127.486000 Y43.565000 Z-0.125000
G01 X125.872000 Y44.065000 Z-0.125000
G01 X124.413000 Y44.856000 Z-0.125000
G01 X123.142000 Y45.904000 Z-0.125000
G01 X122.093000 Y47.175000 Z-0.125000
G01 X121.302000 Y48.635000 Z-0.125000
G01 X120.802000 Y50.249000 Z-0.125000
G01 X120.628000 Y51.983000 Z-0.125000
G01 X120.802000 Y53.717000 Z-0.125000
G01 X121.302000 Y55.331000 Z-0.125000
G01 X122.093000 Y56.790000 Z-0.125000
G01 X123.142000 Y58.061000 Z-0.125000
G01 X124.413000 Y59.110000 Z-0.125000
G01 X125.872000 Y59.901000 Z-0.125000
G01 X127.486000 Y60.401000 Z-0.125000
G01 X129.220000 Y60.575000 Z-0.125000
G01 X129.220000 Y60.575000 Z-0.125000
G00 Z5.000000

(End cutting path id: path22999)


(Start cutting path id: path23005)
(Change tool to Default tool)

G00 Z5.000000
G00 X158.628000 Y66.321000

G01 Z-0.125000 F100.0(Penetrate)
G01 X160.014000 Y66.232000 Z-0.125000 F400.000000
G01 X161.342000 Y65.973000 Z-0.125000
G01 X162.605000 Y65.556000 Z-0.125000
G01 X163.792000 Y64.992000 Z-0.125000
G01 X164.895000 Y64.292000 Z-0.125000
G01 X165.905000 Y63.470000 Z-0.125000
G01 X166.813000 Y62.535000 Z-0.125000
G01 X167.608000 Y61.500000 Z-0.125000
G01 X162.727000 Y58.685000 Z-0.125000
G01 X161.919000 Y59.489000 Z-0.125000
G01 X160.960000 Y60.107000 Z-0.125000
G01 X159.874000 Y60.504000 Z-0.125000
G01 X158.687000 Y60.644000 Z-0.125000
G01 X157.630000 Y60.537000 Z-0.125000
G01 X156.645000 Y60.230000 Z-0.125000
G01 X155.752000 Y59.744000 Z-0.125000
G01 X154.974000 Y59.102000 Z-0.125000
G01 X154.331000 Y58.323000 Z-0.125000
G01 X153.846000 Y57.431000 Z-0.125000
G01 X153.538000 Y56.446000 Z-0.125000
G01 X153.431000 Y55.390000 Z-0.125000
G01 X153.431000 Y38.393000 Z-0.125000
G01 X147.698000 Y38.393000 Z-0.125000
G01 X147.698000 Y55.389000 Z-0.125000
G01 X147.920000 Y57.594000 Z-0.125000
G01 X148.556000 Y59.648000 Z-0.125000
G01 X149.563000 Y61.505000 Z-0.125000
G01 X150.897000 Y63.122000 Z-0.125000
G01 X152.514000 Y64.456000 Z-0.125000
G01 X154.371000 Y65.463000 Z-0.125000
G01 X156.424000 Y66.099000 Z-0.125000
G01 X158.628000 Y66.321000 Z-0.125000
G01 X158.628000 Y66.321000 Z-0.125000
G00 Z5.000000

(End cutting path id: path23005)


(Start cutting path id: path23005)
(Change tool to Default tool)

G00 Z5.000000
G00 X158.628000 Y67.825000

G01 Z-0.125000 F100.0(Penetrate)
G01 X156.125000 Y67.571000 Z-0.125000 F400.000000
G01 X153.793000 Y66.846000 Z-0.125000
G01 X151.681000 Y65.698000 Z-0.125000
G01 X149.840000 Y64.179000 Z-0.125000
G01 X148.321000 Y62.338000 Z-0.125000
G01 X147.173000 Y60.226000 Z-0.125000
G01 X146.447000 Y57.893000 Z-0.125000
G01 X146.194000 Y55.389000 Z-0.125000
G01 X146.194000 Y36.890000 Z-0.125000
G01 X154.935000 Y36.890000 Z-0.125000
G01 X154.935000 Y55.390000 Z-0.125000
G01 X155.011000 Y56.148000 Z-0.125000
G01 X155.229000 Y56.853000 Z-0.125000
G01 X156.030000 Y58.045000 Z-0.125000
G01 X157.223000 Y58.847000 Z-0.125000
G01 X157.928000 Y59.065000 Z-0.125000
G01 X158.687000 Y59.140000 Z-0.125000
G01 X159.675000 Y59.010000 Z-0.125000
G01 X160.562000 Y58.640000 Z-0.125000
G01 X161.316000 Y58.067000 Z-0.125000
G01 X161.903000 Y57.325000 Z-0.125000
G01 X162.283000 Y56.694000 Z-0.125000
G01 X162.921000 Y57.062000 Z-0.125000
G01 X169.753000 Y61.001000 Z-0.125000
G01 X169.372000 Y61.654000 Z-0.125000
G01 X168.479000 Y62.979000 Z-0.125000
G01 X167.428000 Y64.175000 Z-0.125000
G01 X166.233000 Y65.229000 Z-0.125000
G01 X164.909000 Y66.124000 Z-0.125000
G01 X163.472000 Y66.845000 Z-0.125000
G01 X161.936000 Y67.379000 Z-0.125000
G01 X160.316000 Y67.711000 Z-0.125000
G01 X158.628000 Y67.825000 Z-0.125000
G01 X158.628000 Y67.825000 Z-0.125000
G00 Z5.000000

(End cutting path id: path23005)


(Start cutting path id: path23017)
(Change tool to Default tool)

G00 Z5.000000
G00 X34.578100 Y65.649000

G01 Z-0.125000 F100.0(Penetrate)
G01 X40.268200 Y65.649000 Z-0.125000 F400.000000
G01 X48.008800 Y49.373000 Z-0.125000
G01 X55.845500 Y65.649000 Z-0.125000
G01 X61.447900 Y65.649000 Z-0.125000
G01 X48.013000 Y39.297000 Z-0.125000
G01 X34.578100 Y65.649000 Z-0.125000
G00 Z5.000000

(End cutting path id: path23017)


(Start cutting path id: path23017)
(Change tool to Default tool)

G00 Z5.000000
G00 X32.122600 Y67.152000

G01 Z-0.125000 F100.0(Penetrate)
G01 X32.680400 Y66.059000 Z-0.125000 F400.000000
G01 X48.013000 Y35.986000 Z-0.125000
G01 X63.902600 Y67.152000 Z-0.125000
G01 X54.901200 Y67.152000 Z-0.125000
G01 X48.017200 Y52.856000 Z-0.125000
G01 X41.217500 Y67.152000 Z-0.125000
G01 X32.122600 Y67.152000 Z-0.125000
G00 Z5.000000

(End cutting path id: path23017)


(Start cutting path id: path22987)
(Change tool to Default tool)

G00 Z5.000000
G00 X20.304200 Y66.652000

G01 Z-0.125000 F100.0(Penetrate)
G01 X22.601200 Y66.473000 Z-0.125000 F400.000000
G01 X24.782500 Y65.953000 Z-0.125000
G01 X26.822000 Y65.120000 Z-0.125000
G01 X28.693400 Y64.002000 Z-0.125000
G01 X30.370600 Y62.626000 Z-0.125000
G01 X31.827400 Y61.019000 Z-0.125000
G01 X33.037700 Y59.210000 Z-0.125000
G01 X33.975300 Y57.225000 Z-0.125000
G01 X18.272000 Y48.168000 Z-0.125000
G01 X15.917500 Y52.244000 Z-0.125000
G01 X27.508800 Y58.938000 Z-0.125000
G01 X26.718100 Y59.605000 Z-0.125000
G01 X25.328000 Y60.585000 Z-0.125000
G01 X23.776300 Y61.321000 Z-0.125000
G01 X22.092000 Y61.782000 Z-0.125000
G01 X20.304200 Y61.942000 Z-0.125000
G01 X18.298100 Y61.740000 Z-0.125000
G01 X16.428600 Y61.158000 Z-0.125000
G01 X14.736200 Y60.239000 Z-0.125000
G01 X13.261100 Y59.021000 Z-0.125000
G01 X12.043700 Y57.546000 Z-0.125000
G01 X11.124100 Y55.854000 Z-0.125000
G01 X10.542800 Y53.984000 Z-0.125000
G01 X10.340100 Y51.978000 Z-0.125000
G01 X10.542800 Y49.973000 Z-0.125000
G01 X11.124100 Y48.103000 Z-0.125000
G01 X12.043600 Y46.411000 Z-0.125000
G01 X13.261100 Y44.935000 Z-0.125000
G01 X14.736200 Y43.717000 Z-0.125000
G01 X16.428600 Y42.797000 Z-0.125000
G01 X18.298000 Y42.216000 Z-0.125000
G01 X20.304200 Y42.013000 Z-0.125000
G01 X21.563300 Y42.094000 Z-0.125000
G01 X22.772000 Y42.330000 Z-0.125000
G01 X23.921700 Y42.711000 Z-0.125000
G01 X25.003900 Y43.225000 Z-0.125000
G01 X26.931500 Y44.613000 Z-0.125000
G01 X28.486500 Y46.409000 Z-0.125000
G01 X32.607700 Y44.032000 Z-0.125000
G01 X31.541100 Y42.583000 Z-0.125000
G01 X30.310600 Y41.277000 Z-0.125000
G01 X28.930800 Y40.128000 Z-0.125000
G01 X27.416300 Y39.153000 Z-0.125000
G01 X25.781800 Y38.368000 Z-0.125000
G01 X24.041900 Y37.788000 Z-0.125000
G01 X22.211200 Y37.428000 Z-0.125000
G01 X20.304200 Y37.304000 Z-0.125000
G01 X18.802400 Y37.380000 Z-0.125000
G01 X17.344200 Y37.602000 Z-0.125000
G01 X14.588500 Y38.456000 Z-0.125000
G01 X12.095600 Y39.808000 Z-0.125000
G01 X9.924340 Y41.599000 Z-0.125000
G01 X8.133390 Y43.770000 Z-0.125000
G01 X6.781450 Y46.263000 Z-0.125000
G01 X5.927230 Y49.019000 Z-0.125000
G01 X5.705110 Y50.477000 Z-0.125000
G01 X5.629440 Y51.978000 Z-0.125000
G01 X5.705110 Y53.480000 Z-0.125000
G01 X5.927230 Y54.938000 Z-0.125000
G01 X6.781450 Y57.694000 Z-0.125000
G01 X8.133390 Y60.187000 Z-0.125000
G01 X9.924340 Y62.358000 Z-0.125000
G01 X12.095600 Y64.149000 Z-0.125000
G01 X14.588500 Y65.500000 Z-0.125000
G01 X17.344200 Y66.355000 Z-0.125000
G01 X18.802400 Y66.577000 Z-0.125000
G01 X20.304200 Y66.652000 Z-0.125000
G01 X20.304200 Y66.652000 Z-0.125000
G00 Z5.000000

(End cutting path id: path22987)


(Start cutting path id: path22987)
(Change tool to Default tool)

G00 Z5.000000
G00 X20.304200 Y68.103000

G01 Z-0.125000 F100.0(Penetrate)
G01 X18.656900 Y68.019000 Z-0.125000 F400.000000
G01 X17.056900 Y67.775000 Z-0.125000
G01 X15.512300 Y67.377000 Z-0.125000
G01 X14.031200 Y66.834000 Z-0.125000
G01 X12.621900 Y66.155000 Z-0.125000
G01 X11.292300 Y65.347000 Z-0.125000
G01 X8.905320 Y63.377000 Z-0.125000
G01 X6.935350 Y60.990000 Z-0.125000
G01 X6.127110 Y59.661000 Z-0.125000
G01 X5.447570 Y58.251000 Z-0.125000
G01 X4.904860 Y56.770000 Z-0.125000
G01 X4.507130 Y55.226000 Z-0.125000
G01 X4.262520 Y53.626000 Z-0.125000
G01 X4.179170 Y51.978000 Z-0.125000
G01 X4.262520 Y50.331000 Z-0.125000
G01 X4.507130 Y48.731000 Z-0.125000
G01 X4.904860 Y47.187000 Z-0.125000
G01 X5.447570 Y45.706000 Z-0.125000
G01 X6.127110 Y44.296000 Z-0.125000
G01 X6.935350 Y42.967000 Z-0.125000
G01 X8.905320 Y40.580000 Z-0.125000
G01 X11.292300 Y38.610000 Z-0.125000
G01 X12.621900 Y37.802000 Z-0.125000
G01 X14.031200 Y37.122000 Z-0.125000
G01 X15.512300 Y36.580000 Z-0.125000
G01 X17.056900 Y36.182000 Z-0.125000
G01 X18.656900 Y35.938000 Z-0.125000
G01 X20.304200 Y35.854000 Z-0.125000
G01 X22.500900 Y36.003000 Z-0.125000
G01 X24.608000 Y36.435000 Z-0.125000
G01 X26.605900 Y37.133000 Z-0.125000
G01 X28.474800 Y38.075000 Z-0.125000
G01 X30.195000 Y39.244000 Z-0.125000
G01 X31.746900 Y40.618000 Z-0.125000
G01 X33.110700 Y42.180000 Z-0.125000
G01 X34.266700 Y43.910000 Z-0.125000
G01 X34.630700 Y44.538000 Z-0.125000
G01 X28.039000 Y48.343000 Z-0.125000
G01 X27.675800 Y47.717000 Z-0.125000
G01 X26.346300 Y45.980000 Z-0.125000
G01 X24.620700 Y44.637000 Z-0.125000
G01 X22.579700 Y43.770000 Z-0.125000
G01 X21.466200 Y43.541000 Z-0.125000
G01 X20.304200 Y43.463000 Z-0.125000
G01 X18.585300 Y43.636000 Z-0.125000
G01 X16.985800 Y44.131000 Z-0.125000
G01 X15.539400 Y44.915000 Z-0.125000
G01 X14.280100 Y45.954000 Z-0.125000
G01 X13.241600 Y47.214000 Z-0.125000
G01 X12.458000 Y48.660000 Z-0.125000
G01 X11.962900 Y50.260000 Z-0.125000
G01 X11.790400 Y51.978000 Z-0.125000
G01 X11.962900 Y53.697000 Z-0.125000
G01 X12.457900 Y55.296000 Z-0.125000
G01 X13.241600 Y56.743000 Z-0.125000
G01 X14.280000 Y58.002000 Z-0.125000
G01 X15.539300 Y59.041000 Z-0.125000
G01 X16.985700 Y59.824000 Z-0.125000
G01 X18.585300 Y60.320000 Z-0.125000
G01 X20.304200 Y60.492000 Z-0.125000
G01 X21.557100 Y60.398000 Z-0.125000
G01 X22.748500 Y60.125000 Z-0.125000
G01 X23.869100 Y59.691000 Z-0.125000
G01 X24.909700 Y59.112000 Z-0.125000
G01 X13.936200 Y52.775000 Z-0.125000
G01 X17.740900 Y46.186000 Z-0.125000
G01 X35.770400 Y56.586000 Z-0.125000
G01 X35.580100 Y57.150000 Z-0.125000
G01 X34.595800 Y59.450000 Z-0.125000
G01 X33.281200 Y61.549000 Z-0.125000
G01 X31.669200 Y63.415000 Z-0.125000
G01 X29.792800 Y65.015000 Z-0.125000
G01 X27.685100 Y66.317000 Z-0.125000
G01 X25.379000 Y67.287000 Z-0.125000
G01 X22.907700 Y67.893000 Z-0.125000
G01 X20.304200 Y68.103000 Z-0.125000
G01 X20.304200 Y68.103000 Z-0.125000
G00 Z5.000000

(End cutting path id: path22987)


(Start cutting path id: path4150)
(Change tool to Default tool)

G00 Z5.000000
G00 X80.591711 Y99.165994

G01 Z-0.125000 F100.0(Penetrate)
G01 X78.875228 Y98.911664 Z-0.125000 F400.000000
G01 X76.945093 Y98.536617 Z-0.125000
G01 X74.492738 Y97.946927 Z-0.125000
G01 X72.036413 Y97.226269 Z-0.125000
G01 X70.182016 Y96.586308 Z-0.125000
G01 X68.601793 Y95.953293 Z-0.125000
G01 X68.816105 Y95.408913 Z-0.125000
G01 X68.976178 Y94.854942 Z-0.125000
G01 X69.083003 Y94.294356 Z-0.125000
G01 X69.137243 Y93.731125 Z-0.125000
G01 X69.139889 Y93.168885 Z-0.125000
G01 X69.092264 Y92.610945 Z-0.125000
G01 X68.994699 Y92.060282 Z-0.125000
G01 X68.848517 Y91.521524 Z-0.125000
G01 X68.654709 Y90.996988 Z-0.125000
G01 X68.413939 Y90.491303 Z-0.125000
G01 X68.127527 Y90.007116 Z-0.125000
G01 X67.795806 Y89.548395 Z-0.125000
G01 X67.420429 Y89.118447 Z-0.125000
G01 X67.002057 Y88.720911 Z-0.125000
G01 X66.541351 Y88.359093 Z-0.125000
G01 X66.039635 Y88.036633 Z-0.125000
G01 X65.509477 Y87.763451 Z-0.125000
G01 X64.966089 Y87.545169 Z-0.125000
G01 X64.412448 Y87.381789 Z-0.125000
G01 X63.852194 Y87.271326 Z-0.125000
G01 X63.289293 Y87.213779 Z-0.125000
G01 X62.726723 Y87.207826 Z-0.125000
G01 X62.168121 Y87.252474 Z-0.125000
G01 X61.617127 Y87.346732 Z-0.125000
G01 X61.077047 Y87.489607 Z-0.125000
G01 X60.551849 Y87.680438 Z-0.125000
G01 X60.044511 Y87.918232 Z-0.125000
G01 X59.558670 Y88.201666 Z-0.125000
G01 X59.098295 Y88.530080 Z-0.125000
G01 X58.666032 Y88.902812 Z-0.125000
G01 X58.266181 Y89.318538 Z-0.125000
G01 X57.901717 Y89.776267 Z-0.125000
G01 X56.543744 Y88.698091 Z-0.125000
G01 X55.060425 Y87.408909 Z-0.125000
G01 X53.231493 Y85.671590 Z-0.125000
G01 X51.465070 Y83.819838 Z-0.125000
G01 X50.179857 Y82.339164 Z-0.125000
G01 X49.128469 Y81.001035 Z-0.125000
G01 X49.586198 Y80.636902 Z-0.125000
G01 X50.001594 Y80.237051 Z-0.125000
G01 X50.374325 Y79.804788 Z-0.125000
G01 X50.702739 Y79.344413 Z-0.125000
G01 X50.986174 Y78.858572 Z-0.125000
G01 X51.223637 Y78.351565 Z-0.125000
G01 X51.414468 Y77.826036 Z-0.125000
G01 X51.557343 Y77.286287 Z-0.125000
G01 X51.651601 Y76.735292 Z-0.125000
G01 X51.696249 Y76.177021 Z-0.125000
G01 X51.689965 Y75.614451 Z-0.125000
G01 X51.632418 Y75.051220 Z-0.125000
G01 X51.522286 Y74.491296 Z-0.125000
G01 X51.358575 Y73.937655 Z-0.125000
G01 X51.140294 Y73.394268 Z-0.125000
G01 X50.867112 Y72.864109 Z-0.125000
G01 X50.544651 Y72.362393 Z-0.125000
G01 X50.182833 Y71.901688 Z-0.125000
G01 X49.785297 Y71.482985 Z-0.125000
G01 X49.355349 Y71.107607 Z-0.125000
G01 X48.896628 Y70.776217 Z-0.125000
G01 X48.412441 Y70.489475 Z-0.125000
G01 X47.906426 Y70.249035 Z-0.125000
G01 X47.382220 Y70.054897 Z-0.125000
G01 X46.843132 Y69.908715 Z-0.125000
G01 X46.292799 Y69.811480 Z-0.125000
G01 X45.734859 Y69.763525 Z-0.125000
G01 X45.172289 Y69.766501 Z-0.125000
G01 X44.609057 Y69.820741 Z-0.125000
G01 X44.048802 Y69.927566 Z-0.125000
G01 X43.494501 Y70.087639 Z-0.125000
G01 X42.950451 Y70.302282 Z-0.125000
G01 X42.531749 Y69.266108 Z-0.125000
G01 X42.086587 Y68.051671 Z-0.125000
G01 X41.553452 Y66.444990 Z-0.125000
G01 X48.016558 Y52.855666 Z-0.125000
G01 X54.900682 Y67.152419 Z-0.125000
G01 X55.852190 Y67.152419 Z-0.125000
G01 X56.982621 Y69.336884 Z-0.125000
G01 X58.258243 Y71.429076 Z-0.125000
G01 X59.672440 Y73.422049 Z-0.125000
G01 X61.218268 Y75.309189 Z-0.125000
G01 X62.889111 Y77.083550 Z-0.125000
G01 X64.678355 Y78.738518 Z-0.125000
G01 X66.579385 Y80.267808 Z-0.125000
G01 X68.585256 Y81.664477 Z-0.125000
G01 X70.689685 Y82.921578 Z-0.125000
G01 X72.885725 Y84.032827 Z-0.125000
G01 X75.166763 Y84.991611 Z-0.125000
G01 X77.526515 Y85.790983 Z-0.125000
G01 X79.957704 Y86.424329 Z-0.125000
G01 X82.454046 Y86.884704 Z-0.125000
G01 X85.008597 Y87.166154 Z-0.125000
G01 X87.615072 Y87.261404 Z-0.125000
G01 X88.989251 Y87.234946 Z-0.125000
G01 X90.349870 Y87.156232 Z-0.125000
G01 X91.696268 Y87.026586 Z-0.125000
G01 X93.027122 Y86.846670 Z-0.125000
G01 X94.341769 Y86.617144 Z-0.125000
G01 X95.638888 Y86.339662 Z-0.125000
G01 X96.917818 Y86.014556 Z-0.125000
G01 X98.177564 Y85.643478 Z-0.125000
G01 X100.635542 Y84.765392 Z-0.125000
G01 X103.004885 Y83.713674 Z-0.125000
G01 X105.278316 Y82.495930 Z-0.125000
G01 X107.448229 Y81.119766 Z-0.125000
G01 X109.506686 Y79.593121 Z-0.125000
G01 X111.446081 Y77.923601 Z-0.125000
G01 X113.258807 Y76.118813 Z-0.125000
G01 X114.937256 Y74.187025 Z-0.125000
G01 X116.473493 Y72.135513 Z-0.125000
G01 X117.860239 Y69.971884 Z-0.125000
G01 X119.089559 Y67.704406 Z-0.125000
G01 X120.154176 Y65.340686 Z-0.125000
G01 X121.148678 Y65.965433 Z-0.125000
G01 X122.190143 Y66.518412 Z-0.125000
G01 X123.274604 Y66.995984 Z-0.125000
G01 X124.398752 Y67.394513 Z-0.125000
G01 X125.559280 Y67.710690 Z-0.125000
G01 X126.752219 Y67.940877 Z-0.125000
G01 X127.974594 Y68.081437 Z-0.125000
G01 X129.222765 Y68.129062 Z-0.125000
G01 X130.354850 Y68.089374 Z-0.125000
G01 X131.466100 Y67.972958 Z-0.125000
G01 X130.839368 Y69.668605 Z-0.125000
G01 X130.586360 Y70.299967 Z-0.125000
G01 X130.041981 Y70.085655 Z-0.125000
G01 X129.487679 Y69.925582 Z-0.125000
G01 X128.927424 Y69.819087 Z-0.125000
G01 X128.364192 Y69.764848 Z-0.125000
G01 X127.801953 Y69.762202 Z-0.125000
G01 X127.243682 Y69.810157 Z-0.125000
G01 X126.693349 Y69.907723 Z-0.125000
G01 X126.154261 Y70.053905 Z-0.125000
G01 X125.630056 Y70.247712 Z-0.125000
G01 X125.124040 Y70.488483 Z-0.125000
G01 X124.639853 Y70.774894 Z-0.125000
G01 X124.181132 Y71.106284 Z-0.125000
G01 X123.751184 Y71.481993 Z-0.125000
G01 X123.353648 Y71.900365 Z-0.125000
G01 X122.991830 Y72.361070 Z-0.125000
G01 X122.669700 Y72.862786 Z-0.125000
G01 X122.396187 Y73.392945 Z-0.125000
G01 X122.178237 Y73.936332 Z-0.125000
G01 X122.014526 Y74.489973 Z-0.125000
G01 X121.904393 Y75.049897 Z-0.125000
G01 X121.846516 Y75.612798 Z-0.125000
G01 X121.840563 Y76.175368 Z-0.125000
G01 X121.884880 Y76.733969 Z-0.125000
G01 X121.979138 Y77.284964 Z-0.125000
G01 X122.122013 Y77.824713 Z-0.125000
G01 X122.312844 Y78.350242 Z-0.125000
G01 X122.550638 Y78.857580 Z-0.125000
G01 X122.834073 Y79.343090 Z-0.125000
G01 X123.162487 Y79.803796 Z-0.125000
G01 X123.535218 Y80.235728 Z-0.125000
G01 X123.950945 Y80.635579 Z-0.125000
G01 X124.408673 Y80.999712 Z-0.125000
G01 X123.359601 Y82.341149 Z-0.125000
G01 X122.074388 Y83.823145 Z-0.125000
G01 X120.304657 Y85.671920 Z-0.125000
G01 X118.373200 Y87.504159 Z-0.125000
G01 X116.900464 Y88.783088 Z-0.125000
G01 X115.631787 Y89.777259 Z-0.125000
G01 X115.267655 Y89.319200 Z-0.125000
G01 X114.868134 Y88.903473 Z-0.125000
G01 X114.436202 Y88.530742 Z-0.125000
G01 X113.975496 Y88.201997 Z-0.125000
G01 X113.489986 Y87.918562 Z-0.125000
G01 X112.982648 Y87.680768 Z-0.125000
G01 X112.457450 Y87.489938 Z-0.125000
G01 X111.917370 Y87.347063 Z-0.125000
G01 X111.366375 Y87.252805 Z-0.125000
G01 X110.807774 Y87.208157 Z-0.125000
G01 X110.245204 Y87.214440 Z-0.125000
G01 X109.682303 Y87.271987 Z-0.125000
G01 X109.122048 Y87.382120 Z-0.125000
G01 X108.568408 Y87.545831 Z-0.125000
G01 X108.024690 Y87.764112 Z-0.125000
G01 X107.494862 Y88.037294 Z-0.125000
G01 X106.992815 Y88.359755 Z-0.125000
G01 X106.532440 Y88.721572 Z-0.125000
G01 X106.114068 Y89.119109 Z-0.125000
G01 X105.738360 Y89.549056 Z-0.125000
G01 X105.406969 Y90.007777 Z-0.125000
G01 X105.120558 Y90.491965 Z-0.125000
G01 X104.879787 Y90.997649 Z-0.125000
G01 X104.685980 Y91.521855 Z-0.125000
G01 X104.539798 Y92.060943 Z-0.125000
G01 X104.442233 Y92.611276 Z-0.125000
G01 X104.394608 Y93.169216 Z-0.125000
G01 X104.397254 Y93.731455 Z-0.125000
G01 X104.451163 Y94.294687 Z-0.125000
G01 X104.557988 Y94.854942 Z-0.125000
G01 X104.717730 Y95.408913 Z-0.125000
G01 X104.932043 Y95.953293 Z-0.125000
G01 X103.353804 Y96.590608 Z-0.125000
G01 X101.500399 Y97.230899 Z-0.125000
G01 X99.043082 Y97.946596 Z-0.125000
G01 X96.454797 Y98.568036 Z-0.125000
G01 X94.539876 Y98.939445 Z-0.125000
G01 X92.944439 Y99.165994 Z-0.125000
G01 X92.946093 Y99.165002 Z-0.125000
G01 X92.859442 Y98.586557 Z-0.125000
G01 X92.720866 Y98.026964 Z-0.125000
G01 X92.533012 Y97.488206 Z-0.125000
G01 X92.298526 Y96.973592 Z-0.125000
G01 X92.019721 Y96.485105 Z-0.125000
G01 X91.699245 Y96.025722 Z-0.125000
G01 X91.339742 Y95.598090 Z-0.125000
G01 X90.943529 Y95.204192 Z-0.125000
G01 X90.513581 Y94.847335 Z-0.125000
G01 X90.052214 Y94.529504 Z-0.125000
G01 X89.562074 Y94.253676 Z-0.125000
G01 X89.045475 Y94.022166 Z-0.125000
G01 X88.505395 Y93.837289 Z-0.125000
G01 X87.944478 Y93.702351 Z-0.125000
G01 X87.364710 Y93.619338 Z-0.125000
G01 X86.769067 Y93.591226 Z-0.125000
G01 X86.173424 Y93.619338 Z-0.125000
G01 X85.593657 Y93.702351 Z-0.125000
G01 X85.032079 Y93.837289 Z-0.125000
G01 X84.491998 Y94.022166 Z-0.125000
G01 X83.975400 Y94.253676 Z-0.125000
G01 X83.485259 Y94.529504 Z-0.125000
G01 X83.023892 Y94.847335 Z-0.125000
G01 X82.593614 Y95.204522 Z-0.125000
G01 X82.197731 Y95.598090 Z-0.125000
G01 X81.838229 Y96.026053 Z-0.125000
G01 X81.517752 Y96.485436 Z-0.125000
G01 X81.238948 Y96.973922 Z-0.125000
G01 X81.004461 Y97.488867 Z-0.125000
G01 X80.816607 Y98.027625 Z-0.125000
G01 X80.678031 Y98.587549 Z-0.125000
G01 X80.591711 Y99.165994 Z-0.125000
G01 X80.591711 Y99.165994 Z-0.125000
G00 Z5.000000

(Change tool to Default tool)

G00 Z5.000000
G00 X87.615072 Y73.209059

G01 Z-0.125000 F100.0(Penetrate)
G01 X85.648227 Y73.118109 Z-0.125000 F400.000000
G01 X83.732314 Y72.851541 Z-0.125000
G01 X81.875601 Y72.416963 Z-0.125000
G01 X80.085696 Y71.822313 Z-0.125000
G01 X78.371197 Y71.076188 Z-0.125000
G01 X76.739710 Y70.186196 Z-0.125000
G01 X75.199175 Y69.160936 Z-0.125000
G01 X73.757858 Y68.008015 Z-0.125000
G01 X75.476656 Y68.102273 Z-0.125000
G01 X76.502909 Y68.070192 Z-0.125000
G01 X77.512293 Y67.974612 Z-0.125000
G01 X78.502496 Y67.817846 Z-0.125000
G01 X79.471532 Y67.601880 Z-0.125000
G01 X80.417748 Y67.328367 Z-0.125000
G01 X81.339489 Y66.999622 Z-0.125000
G01 X82.234111 Y66.617300 Z-0.125000
G01 X83.100291 Y66.183383 Z-0.125000
G01 X83.935712 Y65.699857 Z-0.125000
G01 X84.738722 Y65.168707 Z-0.125000
G01 X85.507336 Y64.591915 Z-0.125000
G01 X86.239901 Y63.971137 Z-0.125000
G01 X86.933770 Y63.309018 Z-0.125000
G01 X87.587952 Y62.606880 Z-0.125000
G01 X88.199801 Y61.866708 Z-0.125000
G01 X88.767993 Y61.090487 Z-0.125000
G01 X90.907810 Y62.326422 Z-0.125000
G01 X90.907810 Y66.400672 Z-0.125000
G01 X90.907810 Y67.152419 Z-0.125000
G01 X99.264670 Y67.152419 Z-0.125000
G01 X101.184552 Y68.261023 Z-0.125000
G01 X99.760433 Y69.360035 Z-0.125000
G01 X98.244041 Y70.336678 Z-0.125000
G01 X96.642320 Y71.183675 Z-0.125000
G01 X94.962878 Y71.893089 Z-0.125000
G01 X93.212991 Y72.457643 Z-0.125000
G01 X91.400266 Y72.870062 Z-0.125000
G01 X89.531647 Y73.123070 Z-0.125000
G01 X87.615072 Y73.209059 Z-0.125000
G01 X87.615072 Y73.209059 Z-0.125000
G00 Z5.000000

(Change tool to Default tool)

G00 Z5.000000
G00 X129.220119 Y60.574881

G01 Z-0.125000 F100.0(Penetrate)
G01 X128.340380 Y60.530563 Z-0.125000 F400.000000
G01 X127.486107 Y60.400587 Z-0.125000
G01 X126.661930 Y60.189251 Z-0.125000
G01 X125.872149 Y59.900855 Z-0.125000
G01 X125.120733 Y59.539368 Z-0.125000
G01 X124.412311 Y59.109421 Z-0.125000
G01 X123.751184 Y58.615312 Z-0.125000
G01 X123.141320 Y58.061340 Z-0.125000
G01 X122.587349 Y57.451476 Z-0.125000
G01 X122.093240 Y56.790349 Z-0.125000
G01 X121.663292 Y56.081927 Z-0.125000
G01 X121.302136 Y55.330511 Z-0.125000
G01 X121.013410 Y54.540730 Z-0.125000
G01 X120.802074 Y53.716554 Z-0.125000
G01 X120.672097 Y52.862281 Z-0.125000
G01 X120.628110 Y51.982541 Z-0.125000
G01 X120.672097 Y51.102472 Z-0.125000
G01 X120.802074 Y50.248529 Z-0.125000
G01 X121.013410 Y49.424353 Z-0.125000
G01 X121.302136 Y48.634572 Z-0.125000
G01 X121.663292 Y47.883486 Z-0.125000
G01 X122.093240 Y47.175065 Z-0.125000
G01 X122.587349 Y46.513937 Z-0.125000
G01 X123.141320 Y45.904073 Z-0.125000
G01 X123.751184 Y45.350102 Z-0.125000
G01 X124.412311 Y44.855993 Z-0.125000
G01 X125.120733 Y44.426045 Z-0.125000
G01 X125.872149 Y44.064889 Z-0.125000
G01 X126.661930 Y43.776494 Z-0.125000
G01 X127.486107 Y43.565158 Z-0.125000
G01 X128.340380 Y43.435181 Z-0.125000
G01 X129.220119 Y43.390863 Z-0.125000
G01 X130.398837 Y43.470900 Z-0.125000
G01 X131.527615 Y43.704064 Z-0.125000
G01 X132.597193 Y44.079111 Z-0.125000
G01 X133.596325 Y44.585457 Z-0.125000
G01 X133.798070 Y45.959305 Z-0.125000
G01 X133.219294 Y46.045956 Z-0.125000
G01 X132.659370 Y46.184201 Z-0.125000
G01 X132.120943 Y46.372055 Z-0.125000
G01 X131.605998 Y46.606542 Z-0.125000
G01 X131.117511 Y46.885346 Z-0.125000
G01 X130.658129 Y47.205823 Z-0.125000
G01 X130.230165 Y47.565325 Z-0.125000
G01 X129.836267 Y47.961538 Z-0.125000
G01 X129.479410 Y48.391486 Z-0.125000
G01 X129.161580 Y48.853184 Z-0.125000
G01 X128.885421 Y49.343324 Z-0.125000
G01 X128.653911 Y49.859923 Z-0.125000
G01 X128.469364 Y50.400003 Z-0.125000
G01 X128.334427 Y50.961250 Z-0.125000
G01 X128.251414 Y51.541018 Z-0.125000
G01 X128.223302 Y52.136992 Z-0.125000
G01 X128.251414 Y52.732635 Z-0.125000
G01 X128.334427 Y53.312403 Z-0.125000
G01 X128.469364 Y53.873319 Z-0.125000
G01 X128.653911 Y54.413400 Z-0.125000
G01 X128.885421 Y54.929998 Z-0.125000
G01 X129.161580 Y55.420139 Z-0.125000
G01 X129.479410 Y55.881506 Z-0.125000
G01 X129.836267 Y56.311453 Z-0.125000
G01 X130.229835 Y56.707667 Z-0.125000
G01 X130.657798 Y57.067169 Z-0.125000
G01 X131.117180 Y57.387645 Z-0.125000
G01 X131.605336 Y57.666450 Z-0.125000
G01 X132.120282 Y57.901268 Z-0.125000
G01 X132.658708 Y58.089122 Z-0.125000
G01 X133.218633 Y58.227697 Z-0.125000
G01 X133.797078 Y58.314348 Z-0.125000
G01 X133.645273 Y59.351845 Z-0.125000
G01 X132.636550 Y59.870428 Z-0.125000
G01 X131.555727 Y60.254404 Z-0.125000
G01 X130.413389 Y60.492860 Z-0.125000
G01 X129.220119 Y60.574881 Z-0.125000
G01 X129.220119 Y60.574881 Z-0.125000
G00 Z5.000000

(Change tool to Default tool)

G00 Z5.000000
G00 X75.476656 Y60.492199

G01 Z-0.125000 F100.0(Penetrate)
G01 X74.604855 Y60.448212 Z-0.125000 F400.000000
G01 X73.758519 Y60.319558 Z-0.125000
G01 X72.941949 Y60.110207 Z-0.125000
G01 X72.159114 Y59.824457 Z-0.125000
G01 X71.414643 Y59.466608 Z-0.125000
G01 X70.712836 Y59.040629 Z-0.125000
G01 X70.057662 Y58.551150 Z-0.125000
G01 X69.453420 Y58.002140 Z-0.125000
G01 X68.904410 Y57.397898 Z-0.125000
G01 X68.414600 Y56.742724 Z-0.125000
G01 X67.988621 Y56.040586 Z-0.125000
G01 X67.630772 Y55.296446 Z-0.125000
G01 X67.345023 Y54.513610 Z-0.125000
G01 X67.135340 Y53.697041 Z-0.125000
G01 X67.006687 Y52.850374 Z-0.125000
G01 X66.962700 Y51.978242 Z-0.125000
G01 X67.006687 Y51.106440 Z-0.125000
G01 X67.135340 Y50.260105 Z-0.125000
G01 X67.345023 Y49.443204 Z-0.125000
G01 X67.630772 Y48.660369 Z-0.125000
G01 X67.988621 Y47.915898 Z-0.125000
G01 X68.414600 Y47.213760 Z-0.125000
G01 X68.904410 Y46.558586 Z-0.125000
G01 X69.453420 Y45.954013 Z-0.125000
G01 X70.057662 Y45.404672 Z-0.125000
G01 X70.712836 Y44.915193 Z-0.125000
G01 X71.414974 Y44.488884 Z-0.125000
G01 X72.159114 Y44.130704 Z-0.125000
G01 X72.941949 Y43.844954 Z-0.125000
G01 X73.758519 Y43.635272 Z-0.125000
G01 X74.604855 Y43.506619 Z-0.125000
G01 X75.476656 Y43.462632 Z-0.125000
G01 X76.129515 Y43.488098 Z-0.125000
G01 X76.768153 Y43.562181 Z-0.125000
G01 X77.996150 Y43.849915 Z-0.125000
G01 X79.148410 Y44.308306 Z-0.125000
G01 X80.213026 Y44.920485 Z-0.125000
G01 X77.841700 Y49.027478 Z-0.125000
G01 X72.916814 Y46.187177 Z-0.125000
G01 X69.111115 Y52.774637 Z-0.125000
G01 X80.084704 Y59.111736 Z-0.125000
G01 X79.043569 Y59.690842 Z-0.125000
G01 X77.922067 Y60.125089 Z-0.125000
G01 X76.729789 Y60.397610 Z-0.125000
G01 X75.476656 Y60.492199 Z-0.125000
G01 X75.476656 Y60.492199 Z-0.125000
G00 Z5.000000

(Change tool to Default tool)

G00 Z5.000000
G00 X115.299405 Y60.166431

G01 Z-0.125000 F100.0(Penetrate)
G01 X108.890538 Y56.469211 Z-0.125000 F400.000000
G01 X102.109932 Y44.502444 Z-0.125000
G01 X113.653036 Y44.502444 Z-0.125000
G01 X113.653036 Y37.083200 Z-0.125000
G01 X118.039494 Y34.551470 Z-0.125000
G01 X116.839279 Y32.625304 Z-0.125000
G01 X115.520662 Y30.784466 Z-0.125000
G01 X114.089267 Y29.035241 Z-0.125000
G01 X112.550054 Y27.382257 Z-0.125000
G01 X110.908646 Y25.830807 Z-0.125000
G01 X109.170004 Y24.386514 Z-0.125000
G01 X107.339750 Y23.054668 Z-0.125000
G01 X105.423175 Y21.840562 Z-0.125000
G01 X103.425241 Y20.749156 Z-0.125000
G01 X101.351901 Y19.786073 Z-0.125000
G01 X99.207454 Y18.956605 Z-0.125000
G01 X96.998185 Y18.266043 Z-0.125000
G01 X94.729053 Y17.719679 Z-0.125000
G01 X92.405351 Y17.323134 Z-0.125000
G01 X90.032040 Y17.081041 Z-0.125000
G01 X87.615072 Y16.999351 Z-0.125000
G01 X86.005745 Y17.035400 Z-0.125000
G01 X84.414608 Y17.143218 Z-0.125000
G01 X82.843976 Y17.320489 Z-0.125000
G01 X81.294841 Y17.566220 Z-0.125000
G01 X79.769188 Y17.878759 Z-0.125000
G01 X78.268340 Y18.256452 Z-0.125000
G01 X76.793950 Y18.697644 Z-0.125000
G01 X75.347341 Y19.201014 Z-0.125000
G01 X73.930168 Y19.764907 Z-0.125000
G01 X72.544082 Y20.388000 Z-0.125000
G01 X71.190739 Y21.068310 Z-0.125000
G01 X69.871461 Y21.804182 Z-0.125000
G01 X68.587902 Y22.594624 Z-0.125000
G01 X67.341384 Y23.437983 Z-0.125000
G01 X66.133893 Y24.332274 Z-0.125000
G01 X64.966750 Y25.276175 Z-0.125000
G01 X63.841279 Y26.268362 Z-0.125000
G01 X62.759465 Y27.306851 Z-0.125000
G01 X61.722630 Y28.390319 Z-0.125000
G01 X60.732427 Y29.517443 Z-0.125000
G01 X59.790511 Y30.686240 Z-0.125000
G01 X58.897873 Y31.895385 Z-0.125000
G01 X58.056829 Y33.143225 Z-0.125000
G01 X57.268371 Y34.428108 Z-0.125000
G01 X56.534153 Y35.749039 Z-0.125000
G01 X55.855828 Y37.103705 Z-0.125000
G01 X55.235049 Y38.491113 Z-0.125000
G01 X54.673472 Y39.909279 Z-0.125000
G01 X54.172086 Y41.357211 Z-0.125000
G01 X53.732878 Y42.832593 Z-0.125000
G01 X53.357501 Y44.334433 Z-0.125000
G01 X53.047277 Y45.861078 Z-0.125000
G01 X48.012590 Y35.986172 Z-0.125000
G01 X42.444105 Y46.908166 Z-0.125000
G01 X41.824650 Y46.557594 Z-0.125000
G01 X41.163853 Y46.278458 Z-0.125000
G01 X40.466677 Y46.076383 Z-0.125000
G01 X39.737750 Y45.956990 Z-0.125000
G01 X39.992411 Y44.241829 Z-0.125000
G01 X40.367127 Y42.313018 Z-0.125000
G01 X40.957148 Y39.860662 Z-0.125000
G01 X41.677476 Y37.404669 Z-0.125000
G01 X42.317105 Y35.550933 Z-0.125000
G01 X42.950451 Y33.971702 Z-0.125000
G01 X43.494501 Y34.186014 Z-0.125000
G01 X44.048802 Y34.346087 Z-0.125000
G01 X44.609057 Y34.452582 Z-0.125000
G01 X45.172289 Y34.506821 Z-0.125000
G01 X45.734528 Y34.509467 Z-0.125000
G01 X46.292799 Y34.461511 Z-0.125000
G01 X46.843132 Y34.363946 Z-0.125000
G01 X47.382220 Y34.217764 Z-0.125000
G01 X47.906426 Y34.023957 Z-0.125000
G01 X48.412110 Y33.783186 Z-0.125000
G01 X48.896297 Y33.496444 Z-0.125000
G01 X49.355019 Y33.165054 Z-0.125000
G01 X49.784966 Y32.789345 Z-0.125000
G01 X50.182503 Y32.370973 Z-0.125000
G01 X50.544320 Y31.910268 Z-0.125000
G01 X50.866450 Y31.408552 Z-0.125000
G01 X51.139963 Y30.878724 Z-0.125000
G01 X51.357913 Y30.335005 Z-0.125000
G01 X51.521624 Y29.781365 Z-0.125000
G01 X51.631757 Y29.221441 Z-0.125000
G01 X51.689304 Y28.658209 Z-0.125000
G01 X51.695588 Y28.095639 Z-0.125000
G01 X51.650939 Y27.537369 Z-0.125000
G01 X51.556682 Y26.986374 Z-0.125000
G01 X51.413807 Y26.446294 Z-0.125000
G01 X51.222976 Y25.921096 Z-0.125000
G01 X50.985513 Y25.413758 Z-0.125000
G01 X50.701747 Y24.928248 Z-0.125000
G01 X50.373333 Y24.467542 Z-0.125000
G01 X50.000602 Y24.035610 Z-0.125000
G01 X49.584875 Y23.635759 Z-0.125000
G01 X49.126816 Y23.271626 Z-0.125000
G01 X50.205323 Y21.912661 Z-0.125000
G01 X51.494835 Y20.429010 Z-0.125000
G01 X53.231824 Y18.599748 Z-0.125000
G01 X55.083906 Y16.832663 Z-0.125000
G01 X56.565241 Y15.546789 Z-0.125000
G01 X57.903702 Y14.494740 Z-0.125000
G01 X58.268165 Y14.952800 Z-0.125000
G01 X58.668016 Y15.368526 Z-0.125000
G01 X59.099949 Y15.740927 Z-0.125000
G01 X59.560654 Y16.069672 Z-0.125000
G01 X60.046164 Y16.353106 Z-0.125000
G01 X60.553503 Y16.590900 Z-0.125000
G01 X61.079031 Y16.781731 Z-0.125000
G01 X61.618781 Y16.924606 Z-0.125000
G01 X62.169775 Y17.018864 Z-0.125000
G01 X62.728376 Y17.063512 Z-0.125000
G01 X63.290946 Y17.057559 Z-0.125000
G01 X63.854178 Y16.999681 Z-0.125000
G01 X64.414102 Y16.889549 Z-0.125000
G01 X64.967742 Y16.725838 Z-0.125000
G01 X65.511130 Y16.507557 Z-0.125000
G01 X66.040958 Y16.234044 Z-0.125000
G01 X66.542674 Y15.911914 Z-0.125000
G01 X67.003379 Y15.550096 Z-0.125000
G01 X67.422082 Y15.152560 Z-0.125000
G01 X67.797460 Y14.722612 Z-0.125000
G01 X68.128850 Y14.263891 Z-0.125000
G01 X68.415592 Y13.779704 Z-0.125000
G01 X68.656032 Y13.273689 Z-0.125000
G01 X68.850170 Y12.749483 Z-0.125000
G01 X68.996352 Y12.210395 Z-0.125000
G01 X69.093587 Y11.660062 Z-0.125000
G01 X69.141542 Y11.101791 Z-0.125000
G01 X69.138897 Y10.539221 Z-0.125000
G01 X69.084657 Y9.976320 Z-0.125000
G01 X68.978162 Y9.415735 Z-0.125000
G01 X68.818089 Y8.861764 Z-0.125000
G01 X68.603777 Y8.317384 Z-0.125000
G01 X70.216742 Y7.680069 Z-0.125000
G01 X72.074447 Y7.040108 Z-0.125000
G01 X74.493068 Y6.325072 Z-0.125000
G01 X76.980150 Y5.720500 Z-0.125000
G01 X78.904993 Y5.347437 Z-0.125000
G01 X80.589065 Y5.105674 Z-0.125000
G01 X80.675716 Y5.684450 Z-0.125000
G01 X80.814292 Y6.244374 Z-0.125000
G01 X81.002146 Y6.783132 Z-0.125000
G01 X81.236963 Y7.297746 Z-0.125000
G01 X81.515768 Y7.786233 Z-0.125000
G01 X81.836244 Y8.245616 Z-0.125000
G01 X82.195747 Y8.673579 Z-0.125000
G01 X82.591960 Y9.067477 Z-0.125000
G01 X83.022239 Y9.424664 Z-0.125000
G01 X83.483606 Y9.742495 Z-0.125000
G01 X83.973746 Y10.018323 Z-0.125000
G01 X84.490345 Y10.250164 Z-0.125000
G01 X85.030425 Y10.434711 Z-0.125000
G01 X85.591672 Y10.569648 Z-0.125000
G01 X86.171440 Y10.652661 Z-0.125000
G01 X86.767083 Y10.681104 Z-0.125000
G01 X87.362726 Y10.652661 Z-0.125000
G01 X87.942494 Y10.569979 Z-0.125000
G01 X88.503741 Y10.434711 Z-0.125000
G01 X89.043821 Y10.250164 Z-0.125000
G01 X89.560420 Y10.018654 Z-0.125000
G01 X90.050561 Y9.742495 Z-0.125000
G01 X90.511928 Y9.424664 Z-0.125000
G01 X90.941875 Y9.067477 Z-0.125000
G01 X91.338089 Y8.673910 Z-0.125000
G01 X91.697591 Y8.245946 Z-0.125000
G01 X92.018067 Y7.786233 Z-0.125000
G01 X92.296872 Y7.297746 Z-0.125000
G01 X92.531690 Y6.783132 Z-0.125000
G01 X92.719544 Y6.244374 Z-0.125000
G01 X92.857788 Y5.684450 Z-0.125000
G01 X92.944439 Y5.105674 Z-0.125000
G01 X94.630496 Y5.343799 Z-0.125000
G01 X96.556331 Y5.716531 Z-0.125000
G01 X99.042421 Y6.325072 Z-0.125000
G01 X101.594987 Y7.081119 Z-0.125000
G01 X103.438801 Y7.717111 Z-0.125000
G01 X104.934027 Y8.318707 Z-0.125000
G01 X104.719715 Y8.862756 Z-0.125000
G01 X104.559642 Y9.417058 Z-0.125000
G01 X104.452816 Y9.977313 Z-0.125000
G01 X104.398577 Y10.540544 Z-0.125000
G01 X104.395600 Y11.102783 Z-0.125000
G01 X104.443556 Y11.661054 Z-0.125000
G01 X104.541121 Y12.211387 Z-0.125000
G01 X104.687303 Y12.750475 Z-0.125000
G01 X104.881110 Y13.274681 Z-0.125000
G01 X105.121881 Y13.780696 Z-0.125000
G01 X105.408292 Y14.264883 Z-0.125000
G01 X105.740014 Y14.723935 Z-0.125000
G01 X106.115391 Y15.153883 Z-0.125000
G01 X106.534094 Y15.551419 Z-0.125000
G01 X106.994469 Y15.913237 Z-0.125000
G01 X107.496515 Y16.235697 Z-0.125000
G01 X108.026343 Y16.508880 Z-0.125000
G01 X108.569731 Y16.726830 Z-0.125000
G01 X109.123371 Y16.890541 Z-0.125000
G01 X109.683295 Y17.000674 Z-0.125000
G01 X110.246196 Y17.058221 Z-0.125000
G01 X110.808766 Y17.064504 Z-0.125000
G01 X111.367037 Y17.019856 Z-0.125000
G01 X111.918031 Y16.925598 Z-0.125000
G01 X112.457781 Y16.782723 Z-0.125000
G01 X112.982979 Y16.591893 Z-0.125000
G01 X113.490317 Y16.354429 Z-0.125000
G01 X113.976158 Y16.070994 Z-0.125000
G01 X114.436533 Y15.742581 Z-0.125000
G01 X114.868465 Y15.370180 Z-0.125000
G01 X115.268647 Y14.954453 Z-0.125000
G01 X115.632779 Y14.496724 Z-0.125000
G01 X116.973886 Y15.545135 Z-0.125000
G01 X118.454890 Y16.830348 Z-0.125000
G01 X120.303334 Y18.600079 Z-0.125000
G01 X122.135242 Y20.530875 Z-0.125000
G01 X123.413841 Y22.002619 Z-0.125000
G01 X124.407681 Y23.270303 Z-0.125000
G01 X123.949952 Y23.634436 Z-0.125000
G01 X123.534226 Y24.034287 Z-0.125000
G01 X123.161825 Y24.466219 Z-0.125000
G01 X122.833411 Y24.926925 Z-0.125000
G01 X122.549646 Y25.412766 Z-0.125000
G01 X122.312182 Y25.920104 Z-0.125000
G01 X122.121352 Y26.445302 Z-0.125000
G01 X121.978477 Y26.985382 Z-0.125000
G01 X121.884219 Y27.536377 Z-0.125000
G01 X121.839571 Y28.094647 Z-0.125000
G01 X121.845854 Y28.657217 Z-0.125000
G01 X121.903401 Y29.220118 Z-0.125000
G01 X122.013534 Y29.780373 Z-0.125000
G01 X122.177245 Y30.333683 Z-0.125000
G01 X122.395526 Y30.877070 Z-0.125000
G01 X122.669039 Y31.407229 Z-0.125000
G01 X122.991169 Y31.908945 Z-0.125000
G01 X123.352656 Y32.369650 Z-0.125000
G01 X123.750192 Y32.788353 Z-0.125000
G01 X124.180140 Y33.164061 Z-0.125000
G01 X124.638861 Y33.495452 Z-0.125000
G01 X125.123048 Y33.782194 Z-0.125000
G01 X125.628733 Y34.022965 Z-0.125000
G01 X126.152938 Y34.216772 Z-0.125000
G01 X126.692026 Y34.362954 Z-0.125000
G01 X127.242690 Y34.460519 Z-0.125000
G01 X127.800630 Y34.508144 Z-0.125000
G01 X128.363200 Y34.505498 Z-0.125000
G01 X128.926432 Y34.451259 Z-0.125000
G01 X129.486687 Y34.344433 Z-0.125000
G01 X130.040988 Y34.184360 Z-0.125000
G01 X130.585038 Y33.969717 Z-0.125000
G01 X131.351667 Y35.952438 Z-0.125000
G01 X130.296642 Y35.847927 Z-0.125000
G01 X129.222765 Y35.812208 Z-0.125000
G01 X127.572427 Y35.895883 Z-0.125000
G01 X125.969053 Y36.140953 Z-0.125000
G01 X124.421241 Y36.539482 Z-0.125000
G01 X122.937260 Y37.083200 Z-0.125000
G01 X121.524717 Y37.764171 Z-0.125000
G01 X120.192540 Y38.574126 Z-0.125000
G01 X118.948338 Y39.504798 Z-0.125000
G01 X117.800377 Y40.547917 Z-0.125000
G01 X116.756927 Y41.695877 Z-0.125000
G01 X115.825925 Y42.939749 Z-0.125000
G01 X115.015970 Y44.272256 Z-0.125000
G01 X114.334999 Y45.684469 Z-0.125000
G01 X113.790950 Y47.168450 Z-0.125000
G01 X113.392421 Y48.716262 Z-0.125000
G01 X113.147020 Y50.319305 Z-0.125000
G01 X113.063677 Y51.969974 Z-0.125000
G01 X113.101380 Y53.082215 Z-0.125000
G01 X113.213166 Y54.174283 Z-0.125000
G01 X113.396721 Y55.243860 Z-0.125000
G01 X113.649067 Y56.288302 Z-0.125000
G01 X113.967890 Y57.305294 Z-0.125000
G01 X114.351205 Y58.292189 Z-0.125000
G01 X114.795704 Y59.246673 Z-0.125000
G01 X115.299405 Y60.166431 Z-0.125000
G01 X115.299405 Y60.166431 Z-0.125000
G00 Z5.000000

(Change tool to Default tool)

G00 Z5.000000
G00 X94.923191 Y48.410999

G01 Z-0.125000 F100.0(Penetrate)
G01 X89.007772 Y44.998206 Z-0.125000 F400.000000
G01 X89.804829 Y44.538162 Z-0.125000
G01 X89.440696 Y43.909447 Z-0.125000
G01 X88.889702 Y43.025077 Z-0.125000
G01 X88.284468 Y42.180065 Z-0.125000
G01 X87.627309 Y41.377055 Z-0.125000
G01 X86.920541 Y40.618362 Z-0.125000
G01 X86.166810 Y39.906303 Z-0.125000
G01 X85.368430 Y39.243522 Z-0.125000
G01 X84.528048 Y38.632335 Z-0.125000
G01 X83.647978 Y38.075056 Z-0.125000
G01 X82.730536 Y37.574333 Z-0.125000
G01 X81.778698 Y37.132479 Z-0.125000
G01 X80.794448 Y36.751810 Z-0.125000
G01 X79.780764 Y36.434971 Z-0.125000
G01 X78.739298 Y36.184609 Z-0.125000
G01 X77.673358 Y36.002378 Z-0.125000
G01 X76.584929 Y35.891583 Z-0.125000
G01 X75.476656 Y35.853880 Z-0.125000
G01 X74.149441 Y35.921349 Z-0.125000
G01 X75.566615 Y34.839865 Z-0.125000
G01 X77.073747 Y33.878767 Z-0.125000
G01 X78.664223 Y33.045330 Z-0.125000
G01 X80.330766 Y32.347161 Z-0.125000
G01 X82.066432 Y31.791205 Z-0.125000
G01 X83.863613 Y31.385401 Z-0.125000
G01 X85.715696 Y31.136362 Z-0.125000
G01 X87.615072 Y31.051695 Z-0.125000
G01 X88.667783 Y31.077492 Z-0.125000
G01 X89.706602 Y31.154221 Z-0.125000
G01 X90.731201 Y31.280560 Z-0.125000
G01 X91.739924 Y31.455185 Z-0.125000
G01 X93.705116 Y31.945325 Z-0.125000
G01 X95.592586 Y32.614720 Z-0.125000
G01 X97.392744 Y33.453449 Z-0.125000
G01 X99.095668 Y34.451920 Z-0.125000
G01 X100.692428 Y35.600542 Z-0.125000
G01 X102.172440 Y36.889393 Z-0.125000
G01 X88.396254 Y36.889393 Z-0.125000
G01 X94.923191 Y48.410999 Z-0.125000
G00 Z5.000000

(End cutting path id: path4150)


(Footer)
M5
G00 X0.0000 Y0.0000
M2
(Using default footer. To add your own footer create file "footer" in the output dir.)
(end)
%